!! Isochronous pitch passage.
!! Bass-line.
!! From Bartok, Mikrokosmos, Vol.4, No. 97, bar 1ff.
!! Piano
!! 6/8 meter
**kern	**metpos
*M6/8	*M6/8
*tb8	*tb8
=1	=1
8E	1
8G	3
8c	3
8d-	2
8c	3
8G	3
=2	=2
8E	1
8G	3
8c	3
8dn	2
8c	3
8G	3
=3	=3
8E	1
8G	3
8c	3
8d#	2
8c	3
8G	3
=4	=4
8E	1
8G	3
8c	3
8dn	2
8c	3
8G	3
=5	=5
8E	1
8G	3
8c	3
8d-	2
8c	3
8G	3
=6	=6
8E	1
8G	3
8c	3
8d#	2
8c	3
8G	3
=7	=7
8E	1
8G	3
8c	3
8dn	2
8c	3
8G	3
=8	=8
8E	1
8G	3
8c	3
8e-	2
8c	3
8A-	3
=9	=9
8G	1
8B-	3
8c#	3
8e-	2
8c#	3
8B-	3
=10	=10
8G	1
8B-	3
8c#	3
8e-	2
8c#	3
8B-	3
=11	=11
8G	1
8B-	3
8c#	3
8d	2
8c#	3
8B-	3
=12	=12
8G	1
8B-	3
8c#	3
8e-	2
8c#	3
8B-	3
=13	=13
8G	1
8B-	3
8c#	3
8fn	2
8c#	3
8B-	3
=14	=14
8G	1
8B-	3
8c#	3
8d	2
8c#	3
8B-	3
=15	=15
8G	1
8B-	3
8c#	3
8e-	2
8c#	3
8B-	3
=16	=16
8G	1
8Bn	3
8e	3
8fn	2
8e	3
8B	3
=17	=17
8G	1
8B	3
8e	3
8f#	2
8e	3
8B	3
=18	=18
8G	1
8B	3
8d#	3
8f	2
8d#	3
8B	3
=19	=19
8G	1
8B-	3
8d	3
8e-	2
8d	3
8B-	3
=20	=20
8G	1
8A	3
8c#	3
8d	2
8c#	3
8A	3
=21	=21
8G	1
8B	3
8d	3
8e	2
8d	3
8B	3
=22	=22
8G	1
8B-	3
8d	3
8fn	2
8d	3
8B-	3
=23	=23
8G	1
8Bn	3
8d	3
8f#	2
8d	3
8B	3
=24	=24
8G	1
8B-	3
8c#	3
8fn	2
8c#	3
8B-	3
=25	=25
8F#	1
8A	3
8c	3
8e	2
8c	3
8A	3
=26	=26
8Fn	1
8A	3
8c	3
8d#	2
8c	3
8A	3
=27	=27
*-	*-
